X:1
T:when the tide comes in
T:when the tide comes in
T:conaln fallier and anne brauer
C:conaln fallier and anne brauer
%%score { 1 | 2 } 3
L:1/8
Q:1/4=80
M:4/4
K:C
V:1 treble nm="Piano" snm="Pno."
V:2 bass 
V:3 bass nm="Violoncello" snm="Vc."
V:1
!mp! z2 z4 !^!B2 | b8 | z4 c'2 z b | e8 |"_cresc." z4 e'2 z d' | g8 | z4 c'2 z b |"_cresc." c'8 | %8
!mf! z4 z2 !^!c2 | c'8 | z2 z2 d'2 z f' |"_cresc." d'8 | z4 e'2 f'2 |"_cresc." e'8 | z4 c'2 z g | %15
"_cresc." d'8 |[Q:1/4=100]!f! z4 z2 [cgc']2- | [cgc']8- | [cgc']4 !^![dd']2 !^![ff']2 | %19
 [ee'] [cc']4 [Aa] [Aa]2- | [Aa] z [Gg]4 [cgc']2- | [cgc']4 !^![dd']2 !^![ff']2 | %22
 [ee'] [cc']4 z!mf! !^![Gg]2- |"_dim." [Gg] [Ff]3 [Ee]2 [Dd]2 | !^![Ee] !^![Cc]3!p! B2 [A,A]2- | %25
"_cresc." [A,A] [B,B]3 [Cc]2 [B,B]2- | [B,B]!mp!"_cresc." [Cc]3 d2 [Cc]2- | %27
!mf! [Cc]"_cresc." [Dd]3 e2 d2- |!f! d"_cresc." z [ee'][dd'] [cc'][Bb] [Aa]2- | %29
"_cresc." [Aa]2 z2 z4 |"_cresc." z2 [ee'][dd'] [cc'][Bb] [Aa]2- |"_cresc." [Aa] z z2 z4 | %32
 z4 z2 A,2- | A, A,3 C2 B,2- | B, A,3 A,B, C2 | B, C3 E2 D2 | z2 ED CD E2- | E A,3 z4 | %38
 z EED EF E2- | E D4 C3 | z2 [ee'][dd'] [cc'][dd'] [ee']2- | [ee'] [Aa]3 z4 | %42
 z [ee'][ee'][dd'] [cc'][dd'] [ee']2- | [ee'] z z2 ABce | ab[ac'][gb] [fa][gb] c'2 | %45
!mp! c'2 c'2 g g3 | e g3 e g3 | c'2 b2 g g3 | c d2 e2 a2 g- | g2 g2 f f3 | e f2 g2 a2 c'- | %51
 c'2 e'2 f' d'3 | c' d'3 z4!mf! |"_cresc." [GB][Ac]dc debd' |!f! [cec']3 [Bf] [cg] [cg]3 | %55
 [ce] [cg]3 [ce] [cg]3 | [dc']2 [Bb]2 [Bg] [Bg]3 | c d2 e2 [ca]2 [cg]- | [cg]2 [Ag]2 [Af] [Af]3 | %59
 [Ge] [Af]2 [Bg]2 [ca]2 [db]- | [db][ec'] [ge']2 f' [gd']3 | [gc'] [dgbd']3 z4 | B2 c2 e2 f2 | %63
 a2 c'2 g2 c2 |!f! c2 c2 G G3 | E G3 E G3 | c2 B2 G G3 | C D2 E2 A2 G- | G2 G2 F F3 | %69
 E F2 G2 A2 c- | c2 e2 f d3 | c d3 z4 | z8 |!mf! cA d3 f e2 | f2 B e2 f2 d- | d z EF GBGE | %76
 DEGA cAFD | EGBc AFDC | B,EFA cFCB, | DFAG EDCE | e2 !^!c'2 !^!b2 f2 | !^!a2 !^!c'2 b2 f2 | %82
 g2 b2 !^!c'2 !^!g2 | a2 !^!e'2 a2 !^![dg]2 | a2 !^!b2 !^!g2 f2 |!f! [eg]2 [bd']2 [gb]2 [fa]2 | %86
 [gc']2 [ea]2 [da]2 [eg]2 | [fb]2 [ea]2 [eg]2 [da]2 | [ce]2 [Gc]2 [Ac]2 [ce]2 | %89
 [Bf]2 [Bdg]2 [dgd']2 [fd']2 | [Bfa]2 [cfa]2 [Ada]2 [Aec']2 | b [Aea]3 g [Bdg]3 | [df] e2 d2 B c2 | %93
 a2 e2 f2 e'2 | [cec']3 [Bf] [cg] [cg]3 | [ce] [cg]3 [ce] [cg]3 | [dc']2 [Bb]2 [Bg] [Bg]3 | %97
 c d2 e2 [ca]2 [cg]- |"_dim." [cg][cg] [Ag]2 [Af] [Af]3 |!mf!"_dim." [Ge] [Af]2 [Bg]2 [ca]2 [db]- | %100
!mp!"_dim." [db][ec'] [ge']2 f' [gd']3 |!p!"_dim." [gc'] [dgbd']6 z |] %102
V:2
 z8 |!ped! G,,D,G,B, D G3-!ped-up! | G8 |!ped! E,,B,,E,G, B, E3-!ped-up! | E8 | %5
!ped! C,,G,,C,E, G, E3-!ped-up! | E8 |!ped! E,,B,,E,G, B, E3-!ped-up! | E8 | %9
!ped! F,,C,F,A, C F3-!ped-up! | F8 |!ped! G,,D,G,B, D G3-!ped-up! | G8 | %13
!ped! A,,E,A,C E A3-!ped-up! | A8 |!ped! G,,D,G,B, D G3!ped-up! | A2 B2 c2 C,G, | CE,CE, CE,CE, | %18
 CE,CE, CE,A,,E, | A,E,A,E, A,E,G,,D, | G,D,G,D, G,D,C,G, | CG,CG, CG,A,,E, | A,E,A,E, A,E,G,,D, | %23
 F,C,F,C, F,C,E,,C, | E,B,,E,B,, E,B,,F,,C, | E,B,,E,B,, E,B,,F,,C, | F,C,F,C, F,C,G,,D, | %27
 G,D,G,D, G,D,A,,E, | A,E,A,E, A,E,G,,D, | F,C,F,C, F,C,G,,D, | G,D,G,D, G,D,A,,F, | %31
 A,E,A,E, A,E,A,E, | A,E,A,E, A,E,F,,C, | F,C,F,C, F,C,G,,D, | G,D,G,D, G,D,A,,E, | %35
 A,E,A,,E, A,E,G,,D, | G,D,G,D, G,,D,G,,C, | F,C,F,C, F,C,G,,D, | G,D,G,D, G,D,A,,E, | %39
 A,E,A,E, A,E,A,E, | A,E,A,E, A,E,F,,D, | F,C,F,C, F,C,G,,D, | G,8 | A,B,CE z4 | z8 | %45
!p! G,C,G,C G,C,G, z | CG,C,G, CG,C,F, | CG,A,,E, A,E,A,,E, | A,E,A,,E, A,E,A,,E, | %49
 A,E,F,,C, F,C,F,,C, | F,C,F,,C, F,C,F,,C, | F,C,G,,D, G,D,G,,D, |"_cresc." G,D,G,,D, G,B,D!mp!G | %53
 z8 | A,!mf!D,C,A, CF,A,,G, | CG,C,G, CG,C,G, | CG,A,,E, A,E,A,,E, | A,E,A,,E, A,E,A,,E, | %58
 A,E,F,,C, F,C,F,,C, | F,C,F,,C, F,C,F,,C, | F,C,F,,D, G,D,G,,D, | G,D,G,,D, G,B,DG | z8 | %63
!mf! z z2 E, G,4 | G,C,G,C G,C,G, z | CG,C,G, CG,C,F, | CG,A,,E, A,E,A,,E, | A,E,A,,E, A,E,A,,E, | %68
 A,E,F,,C, F,C,F,,C, | F,C,F,,C, F,C,F,,C, | F,C,G,,D, G,D,G,,D, |"_cresc." G,D,G,,D, G,B,DG- | %72
 G z z2 z4 |!p! G,8 | E,8 | D,8 | F,8 | [E,G,]8 | D,8 | G,8 | B,,8 | A,8 | F,8 | E,8 | G,8 | %85
!mf! F,8 | B,,8 | A,8 | [E,G,]8 | [B,,E,G,]8 | [B,,D,G,]8- | [B,,D,G,] [G,,C,F,]6- [G,,C,F,] | %92
 F,8 | [B,,G,]8 | C,,8- | C,,8- | C,,8 | z8 | z8 | z8 | z8 | z8 |] %102
V:3
!p! z8 | G,,8- | G,,4 C,2 D,2 | E,8- | E,4 ^F,2 G,2 | B,8- | B,4 C2 B,2 | E,8- | E,4 z2 G,2 | %9
!mp! A,8- | A,4 B,2 C2 | G,8- | G,4 F,2 E,2 | A,,8- | A,,4 E,2 C,2 | B,,8 |!mf! C,2 D,2 E,2 C,2- | %17
 C,8- | C,4 G,,2 D,2 | E, C,4 z z2 | z2 z2 z2 C,2- | C,4 D,2 E,2 | G, C,4!mf! D, E,2- | %23
 E, F,3 E,2 D,2 | E, C,3!p! B,,2 C,2- | C,6 D,2 | E,2 F,2 E,2 D,2- | D,6!f! z2 | %28
 z B,,A,,D, A,,E, G,2- | G,8- | G,2 CB, A,G, A,2- | A,8 | z4 F,4- | F, G,2 F, E,/F,/G,- z2 | %34
 G,4 E,2 F,2- | F,2 E,4 F,2- | F,2 E,4 A,,2- | A,,6 B,,2- | B,,6 C,2- | C,8 | z2 E,4 A,,2- | %41
 A,,6 B,,2- | B,,6 C,2- | C,8- | C,4 z4 |!mf! EC- C2 G, G,3 | E, G,3 E, G,3 | C2 B,2 G, G,3 | %48
 C, D,2 E,2 A,2 G,- | G,2 G,2 F, F,3 | E, F,2 G,2 A,2 C- | C2 E2 F D3 | C D3 z4 | %53
 B, C2 A, A,2 F,G, | z4!f! G, [F,A,]2 E, | D, D,2 E, A,2 B,G, | F,2 B,2 A,A,B,C- | C2 z2 z4 | z8 | %59
 z8 | z4 DA, B,2- | B,6 z2 | z8 |!f! z z2 E, G,4 | EC- C2 G, G,3 | E, G,3 E, G,3 | C2 B,2 G, G,3 | %67
 C, D,2 E,2 A,2 G, | G,2 G,2 F, F,3 | E, F,2 G,2 A,2 C | C2 E2 F D3 | C D3 z4 |!mp! C6 CB, | %73
 G,E, G,3 C B,2- | B,2 G, A,2 A,2 B,- | B, E,6- E, | D,8 | A,,8 | D,2- D,6- | D,2 C,6- | C,2 A,6- | %81
 A,2 G,6- | G,2 E,6- | E,2 D,6- | D,2 B,,6- | B,,2!p! [A,,D,F,]6- | [A,,D,F,]2 [B,,E,]6- | %87
 [B,,E,]2 [G,,D,]6- | [G,,D,]2 [A,,C,G,]6- | [A,,C,G,]2 [A,,D,F,]6- | [A,,D,F,]2 [A,,C,]6- | %91
 [A,,C,D,]2 [G,,E,]6- | [G,,E,F,]2 [C,E,A,]6- | [C,E,A,]2 [B,,F,A,]6 | G,,8 | E,,8 |"_dim." C,,8- | %97
!p!"_dim." C,,8- |!pp!"_dim." C,,8 |!ppp! z8 | z8 | z8 |] %102

